dist/svgs/crypto-icons/icons/swift.svg

<?xml version="1.0" encoding="UTF-8" standalone="yes"?>
<svg xmlns="http://www.w3.org/2000/svg" xmlns:xlink="http://www.w3.org/1999/xlink" width="512px" height="512px" viewBox="0 0 384 384" version="1.1">
  <g id="surface1">
    <path style=" stroke:none;fill-rule:nonzero;fill:rgb(0%,0%,0%);fill-opacity:1;" d="M 189.632812 0 L 112.832031 44.320312 L 189.632812 88.640625 Z M 104.542969 137.867188 L 104.542969 49.058594 L 27.742188 93.378906 Z M 104.542969 236.488281 L 104.542969 147.847656 L 27.742188 192.167969 Z M 274.890625 236.488281 L 274.890625 147.847656 L 198.089844 192.167969 Z M 104.542969 335.113281 L 104.542969 246.46875 L 27.742188 290.792969 Z M 25.207031 197.074219 L 25.207031 285.714844 L 102.003906 241.394531 Z M 25.207031 98.453125 L 25.207031 187.09375 L 102.003906 142.773438 Z M 110.464844 49.058594 L 110.464844 137.867188 L 187.261719 93.378906 Z M 189.632812 383.660156 L 189.632812 295.019531 L 112.832031 339.339844 Z M 110.464844 245.792969 L 110.464844 334.433594 L 187.261719 290.113281 Z M 195.722656 0 L 195.722656 88.640625 L 272.523438 44.320312 Z M 280.8125 49.058594 L 280.8125 137.867188 L 357.441406 93.378906 Z M 280.8125 147.847656 L 280.8125 236.488281 L 357.441406 192.167969 Z M 280.8125 335.113281 L 357.441406 290.792969 L 280.8125 246.46875 Z M 360.148438 285.714844 L 360.148438 197.074219 L 283.347656 241.394531 Z M 283.347656 142.773438 L 360.148438 187.09375 L 360.148438 98.453125 Z M 274.890625 137.867188 L 274.890625 49.058594 L 198.089844 93.378906 Z M 195.722656 383.660156 L 272.523438 339.339844 L 195.722656 295.019531 Z M 274.890625 334.433594 L 274.890625 245.792969 L 198.089844 290.113281 Z M 274.890625 334.433594 "/>
  </g>
</svg>

<svg xmlns="http://www.w3.org/2000/svg" viewBox="0 0 384 384"><path d="M189.633 0l-76.801 44.32 76.8 44.32zm-85.09 137.867V49.06l-76.8 44.32zm0 98.621v-88.64l-76.8 44.32zm170.348 0v-88.64l-76.801 44.32zm-170.348 98.625V246.47l-76.8 44.324zM25.207 197.074v88.64l76.797-44.32zm0-98.62v88.64l76.797-44.32zm85.258-49.395v88.808l76.797-44.488zm79.168 334.601v-88.64l-76.801 44.32zm-79.168-137.867v88.64l76.797-44.32zM195.723 0v88.64l76.8-44.32zm85.09 49.059v88.808L357.44 93.38zm0 98.789v88.64l76.628-44.32zm0 187.265l76.628-44.32-76.628-44.324zm79.335-49.398v-88.64l-76.8 44.32zm-76.8-142.942l76.8 44.32v-88.64zm-8.457-4.906V49.06L198.09 93.38zM195.723 383.66l76.8-44.32-76.8-44.32zm79.168-49.226v-88.641l-76.801 44.32zm0 0"/></svg>
